icons/svg/cursor-default-outline.svg

﻿<?xml version="1.0" encoding="utf-8"?>
<!DOCTYPE svg PUBLIC "-//W3C//DTD SVG 1.1//EN" "http://www.w3.org/Graphics/SVG/1.1/DTD/svg11.dtd">
<svg xmlns="http://www.w3.org/2000/svg" xmlns:xlink="http://www.w3.org/1999/xlink" version="1.1" baseProfile="full" width="24" height="24" viewBox="0 0 24.00 24.00" enable-background="new 0 0 24.00 24.00" xml:space="preserve">
	<path fill="#000000" fill-opacity="1" stroke-width="0.2" stroke-linejoin="round" d="M 10.0685,14.2663C 10.569,14.0329 11.164,14.2494 11.3974,14.75L 13.7028,19.7366L 15.5095,18.8941L 13.1851,13.9094C 12.9517,13.4089 13.1683,12.8139 13.6688,12.5805L 13.9549,12.4959L 16.2535,12.0491L 7.99999,5.12356L 7.99999,15.9047L 9.81979,14.431L 10.0685,14.2663 Z M 13.6358,21.9746C 13.1353,22.208 12.5403,21.9914 12.3069,21.4909L 10.1261,16.7561L 7.62365,18.7817C 7.45266,18.9183 7.23586,19 6.99999,19C 6.4477,19 5.99999,18.5523 5.99999,18L 5.99999,3.00001C 5.99999,2.44773 6.4477,2.00001 6.99999,2.00001C 7.24494,2.00001 7.46932,2.08808 7.6432,2.23429L 7.65351,2.22202L 19.1442,11.8638C 19.5672,12.2188 19.6224,12.8496 19.2674,13.2727C 19.1158,13.4533 18.9139,13.5669 18.6994,13.6101L 15.5391,14.2251L 17.7448,18.9552C 17.9782,19.4557 17.7616,20.0507 17.2611,20.2841L 13.6358,21.9746 Z "/>
</svg>

<svg xmlns="http://www.w3.org/2000/svg" version="1.1" baseProfile="full" width="24" height="24" viewBox="0 0 24.00 24.00" xml:space="preserve"><path fill="#000" fill-opacity="1" stroke-width=".2" stroke-linejoin="round" d="M10.069 14.266c.5-.233 1.094-.017 1.327.484l2.306 4.987 1.806-.843-2.325-4.985c-.233-.5-.017-1.096.484-1.33l.285-.084 2.298-.447L8 5.123v10.78l1.82-1.473.248-.164zm3.566 7.71c-.5.232-1.096.015-1.33-.485l-2.18-4.734-2.502 2.026c-.17.136-.388.218-.624.218-.552 0-1-.448-1-1V3c0-.552.448-1 1-1 .245 0 .47.088.643.234l.01-.012 11.49 9.642c.424.355.48.986.124 1.41-.15.18-.353.293-.568.336l-3.16.615 2.205 4.73c.233.5.017 1.096-.484 1.33l-3.624 1.69z"/></svg>
